X: 1
T: Hold Up the Sky
C: Brian Finnegan
M: 6/8
R: Jig
L: 1/8
S: Jamie Quinn
K: F#m
|:FAB c2B | ABc- cBA | B2c e2c | f2e cBA |
FAB c2B | ABc- cBA | B2A F2E |1 F3 F2E :|2 F3 F2C ||
|: D2F FEF | A2F D2C | B,2F FEF | B2A F2C |
[1 EFF FEC | EFF FEF | AFA BAB | ~c3 c2C :| 
[2 AEF- FEF | AEF- FEF | AFA BAB | ~c3 c2E |]